flaticon/game/symbols.svg

<svg xmlns="http://www.w3.org/2000/svg" width="32" height="32" viewBox="0 0 24 24">
    <path d="M9.601562 6L7.601562 9.601562 11.601562 9.601562zM16.398438 9.601562L14.398438 6 12.398438 9.601562zM12 2L10 5.601562 14 5.601562zM14.09375 14.929688L12 10.214844 9.90625 14.929688 11.601562 16.199219 11.601562 17.199219 11.199219 17.199219C10.980469 17.199219 10.800781 17.378906 10.800781 17.601562L10.800781 19.199219C10.800781 19.242188 10.808594 19.285156 10.820312 19.328125L11.621094 21.726562C11.675781 21.890625 11.828125 22 12 22 12.171875 22 12.324219 21.890625 12.378906 21.726562L13.179688 19.328125C13.191406 19.285156 13.199219 19.242188 13.199219 19.199219L13.199219 17.601562C13.199219 17.378906 13.019531 17.199219 12.800781 17.199219L12.398438 17.199219 12.398438 16.199219zM12.398438 19.136719L12 20.335938 11.601562 19.136719 11.601562 18 12.398438 18zM12 12.183594L13.105469 14.671875 12 15.5 10.894531 14.671875zM12 12.183594"/>
    <path d="M7.574219 15.742188L8.496094 13.28125C8.539062 13.25 8.582031 13.222656 8.621094 13.1875 9.03125 12.8125 9.09375 12.277344 8.792969 11.714844 8.617188 11.386719 8.332031 11.105469 7.96875 10.898438 7.445312 10.601562 5.867188 9.265625 7.566406 4.535156 7.628906 4.351562 7.554688 4.148438 7.386719 4.054688 7.21875 3.957031 7.007812 3.996094 6.882812 4.140625 6.820312 4.214844 5.886719 5.34375 5.308594 6.902344L.558594 4.832031C.410156 4.769531.234375 4.800781.117188 4.917969.00390625 5.03125-.03125 5.207031.03125 5.359375L1.234375 8.15625C1.289062 8.292969 1.414062 8.382812 1.5625 8.398438L4.882812 8.722656C4.875 8.78125 4.875 8.84375 4.871094 8.902344L.339844 9.605469C.21875 9.625.113281 9.695312.0546875 9.800781-.0078125 9.90625-.015625 10.035156.0273438 10.148438L.828125 12.148438C.890625 12.304688 1.042969 12.398438 1.199219 12.398438 1.246094 12.398438 1.292969 12.390625 1.335938 12.375L5.179688 10.972656C5.210938 11.050781 5.238281 11.128906 5.273438 11.203125L2.179688 13.265625C2.078125 13.332031 2.015625 13.441406 2.003906 13.558594 1.992188 13.679688 2.03125 13.796875 2.117188 13.882812L3.316406 15.082031C3.394531 15.160156 3.496094 15.199219 3.601562 15.199219 3.703125 15.199219 3.804688 15.160156 3.882812 15.082031L6.292969 12.671875C6.363281 12.746094 6.433594 12.820312 6.507812 12.886719L5.242188 15.421875C5.179688 15.546875 5.1875 15.691406 5.257812 15.808594 5.332031 15.929688 5.460938 16 5.601562 16L7.199219 16C7.367188 16 7.515625 15.894531 7.574219 15.742188zM7.574219 11.59375C7.804688 11.726562 7.984375 11.898438 8.085938 12.09375 8.265625 12.429688 8.148438 12.539062 8.082031 12.597656 8.046875 12.628906 8.003906 12.648438 7.960938 12.667969 7.933594 12.679688 7.902344 12.6875 7.871094 12.695312 7.847656 12.703125 7.820312 12.707031 7.792969 12.707031 7.761719 12.707031 7.734375 12.710938 7.703125 12.707031 7.671875 12.703125 7.636719 12.695312 7.605469 12.6875 7.578125 12.683594 7.554688 12.675781 7.527344 12.667969 7.476562 12.644531 7.421875 12.617188 7.375 12.578125 7.371094 12.578125 7.367188 12.578125 7.367188 12.574219L7.261719 12.484375C7.011719 12.273438 6.789062 12.050781 6.597656 11.816406 6.511719 11.71875 6.4375 11.613281 6.363281 11.511719 6.351562 11.496094 6.34375 11.476562 6.332031 11.460938 6.265625 11.363281 6.203125 11.261719 6.148438 11.160156 5.992188 10.875 5.875 10.578125 5.792969 10.269531 5.757812 10.140625 5.730469 10.007812 5.710938 9.871094 5.707031 9.839844 5.703125 9.808594 5.695312 9.777344 5.675781 9.605469 5.660156 9.429688 5.660156 9.246094 5.660156 9.246094 5.660156 9.246094 5.660156 9.242188 5.660156 8.957031 5.683594 8.671875 5.730469 8.394531 5.75 8.273438 5.773438 8.152344 5.804688 8.027344 5.808594 7.996094 5.820312 7.96875 5.824219 7.941406 5.851562 7.835938 5.882812 7.726562 5.914062 7.617188 5.960938 7.460938 6.011719 7.304688 6.070312 7.15625 5.679688 10.105469 6.910156 11.21875 7.574219 11.59375zM5.003906 7.933594L1.875 7.625 1.164062 5.96875 5.066406 7.667969C5.054688 7.710938 5.046875 7.753906 5.035156 7.796875 5.023438 7.84375 5.011719 7.886719 5.003906 7.933594zM1.425781 11.492188L.957031 10.320312 4.878906 9.710938C4.882812 9.71875 4.882812 9.722656 4.882812 9.730469 4.898438 9.890625 4.921875 10.050781 4.953125 10.207031zM3.601562 14.234375L3.027344 13.664062 5.664062 11.90625C5.667969 11.910156 5.671875 11.917969 5.675781 11.925781 5.707031 11.972656 5.738281 12.019531 5.769531 12.0625zM6.246094 15.199219L7.15625 13.378906C7.175781 13.390625 7.195312 13.394531 7.21875 13.402344 7.257812 13.417969 7.296875 13.433594 7.335938 13.445312 7.359375 13.453125 7.382812 13.460938 7.40625 13.464844 7.457031 13.476562 7.507812 13.492188 7.558594 13.496094 7.558594 13.496094 7.558594 13.5 7.5625 13.5L6.921875 15.199219zM23.945312 9.800781C23.886719 9.695312 23.78125 9.625 23.660156 9.605469L19.128906 8.902344C19.125 8.84375 19.125 8.78125 19.117188 8.722656L22.4375 8.398438C22.585938 8.382812 22.710938 8.292969 22.769531 8.15625L23.96875 5.359375C24.03125 5.207031 24 5.03125 23.882812 4.917969 23.765625 4.800781 23.589844 4.769531 23.441406 4.832031L18.691406 6.902344C18.113281 5.34375 17.179688 4.214844 17.117188 4.140625 16.992188 3.996094 16.78125 3.957031 16.613281 4.054688 16.445312 4.148438 16.371094 4.351562 16.4375 4.535156 18.132812 9.265625 16.554688 10.601562 16.03125 10.898438 15.667969 11.105469 15.382812 11.386719 15.207031 11.714844 14.90625 12.277344 14.96875 12.8125 15.378906 13.1875 15.417969 13.222656 15.460938 13.25 15.503906 13.28125L16.425781 15.742188C16.484375 15.894531 16.632812 16 16.800781 16L18.398438 16C18.539062 16 18.667969 15.929688 18.742188 15.808594 18.8125 15.691406 18.820312 15.546875 18.757812 15.421875L17.492188 12.886719C17.566406 12.820312 17.636719 12.746094 17.707031 12.671875L20.117188 15.082031C20.195312 15.160156 20.296875 15.199219 20.398438 15.199219 20.503906 15.199219 20.605469 15.160156 20.683594 15.082031L21.882812 13.882812C21.96875 13.796875 22.007812 13.679688 21.996094 13.558594 21.988281 13.441406 21.921875 13.332031 21.820312 13.265625L18.726562 11.203125C18.761719 11.128906 18.789062 11.050781 18.820312 10.972656L22.664062 12.375C22.707031 12.390625 22.753906 12.398438 22.800781 12.398438 22.957031 12.398438 23.109375 12.304688 23.171875 12.148438L23.972656 10.148438C24.015625 10.035156 24.007812 9.90625 23.945312 9.800781zM22.835938 5.96875L22.125 7.625 18.996094 7.933594C18.988281 7.886719 18.976562 7.84375 18.964844 7.796875 18.953125 7.753906 18.945312 7.710938 18.9375 7.667969zM15.914062 12.09375C16.015625 11.898438 16.195312 11.726562 16.425781 11.59375 17.089844 11.21875 18.320312 10.105469 17.929688 7.15625 17.988281 7.304688 18.039062 7.457031 18.085938 7.617188 18.117188 7.726562 18.148438 7.835938 18.175781 7.941406 18.179688 7.96875 18.191406 7.996094 18.195312 8.027344 18.226562 8.152344 18.25 8.273438 18.269531 8.394531 18.316406 8.671875 18.339844 8.957031 18.339844 9.242188 18.339844 9.246094 18.339844 9.246094 18.339844 9.246094 18.339844 9.429688 18.324219 9.605469 18.300781 9.777344 18.296875 9.808594 18.292969 9.839844 18.289062 9.867188 18.269531 10.007812 18.238281 10.140625 18.207031 10.269531 18.125 10.578125 18.007812 10.875 17.851562 11.160156 17.796875 11.261719 17.734375 11.363281 17.667969 11.460938 17.65625 11.476562 17.648438 11.496094 17.636719 11.511719 17.5625 11.613281 17.484375 11.714844 17.402344 11.816406 17.210938 12.050781 16.988281 12.273438 16.738281 12.484375L16.632812 12.574219C16.628906 12.578125 16.628906 12.578125 16.625 12.578125 16.578125 12.617188 16.527344 12.644531 16.472656 12.667969 16.445312 12.675781 16.417969 12.683594 16.386719 12.691406 16.359375 12.695312 16.328125 12.703125 16.300781 12.707031 16.269531 12.710938 16.234375 12.707031 16.203125 12.707031 16.179688 12.703125 16.152344 12.703125 16.128906 12.695312 16.097656 12.6875 16.066406 12.679688 16.039062 12.667969 15.996094 12.648438 15.953125 12.628906 15.917969 12.597656 15.851562 12.539062 15.734375 12.429688 15.914062 12.09375zM17.078125 15.199219L16.4375 13.5C16.441406 13.5 16.441406 13.496094 16.441406 13.496094 16.492188 13.492188 16.542969 13.476562 16.59375 13.464844 16.617188 13.457031 16.640625 13.453125 16.660156 13.449219 16.703125 13.433594 16.742188 13.417969 16.78125 13.402344 16.800781 13.394531 16.824219 13.390625 16.84375 13.378906L17.753906 15.199219zM18.335938 11.90625L20.972656 13.660156 20.398438 14.234375 18.230469 12.0625C18.261719 12.019531 18.292969 11.972656 18.324219 11.925781 18.328125 11.917969 18.332031 11.910156 18.335938 11.90625zM22.574219 11.492188L19.046875 10.203125C19.078125 10.050781 19.101562 9.890625 19.117188 9.730469 19.117188 9.722656 19.117188 9.71875 19.121094 9.710938L23.042969 10.316406zM7.617188 18.402344C7.308594 18.386719 6.367188 18.34375 6.042969 18.996094 5.710938 19.667969 6.359375 20.496094 6.492188 20.65625 6.574219 20.75 6.6875 20.800781 6.800781 20.800781 6.890625 20.800781 6.980469 20.769531 7.058594 20.707031 7.226562 20.566406 7.25 20.3125 7.105469 20.144531 6.898438 19.894531 6.695312 19.484375 6.761719 19.351562 6.792969 19.285156 7.003906 19.171875 7.59375 19.199219 7.984375 19.203125 8.738281 19.351562 8.808594 19.683594 8.855469 19.898438 9.066406 20.035156 9.285156 19.992188 9.5 19.945312 9.636719 19.734375 9.59375 19.515625 9.363281 18.453125 7.785156 18.402344 7.617188 18.402344zM8.917969 16.117188L7.71875 17.316406C7.5625 17.472656 7.5625 17.726562 7.71875 17.882812 7.796875 17.960938 7.898438 18 8 18 8.101562 18 8.203125 17.960938 8.28125 17.882812L9.484375 16.683594C9.640625 16.527344 9.640625 16.273438 9.484375 16.117188 9.328125 15.960938 9.074219 15.960938 8.917969 16.117188zM16.339844 18.402344C16.164062 18.40625 14.613281 18.472656 14.40625 19.523438 14.367188 19.742188 14.507812 19.949219 14.722656 19.992188 14.9375 20.035156 15.152344 19.894531 15.191406 19.675781 15.253906 19.359375 15.984375 19.210938 16.367188 19.199219 16.957031 19.171875 17.171875 19.289062 17.207031 19.359375 17.277344 19.496094 17.09375 19.894531 16.890625 20.148438 16.75 20.320312 16.777344 20.574219 16.949219 20.710938 17.023438 20.769531 17.113281 20.800781 17.199219 20.800781 17.316406 20.800781 17.433594 20.75 17.511719 20.652344 17.640625 20.492188 18.261719 19.671875 17.921875 19 17.589844 18.34375 16.640625 18.386719 16.339844 18.402344zM15.71875 17.882812C15.796875 17.960938 15.898438 18 16 18 16.101562 18 16.203125 17.960938 16.28125 17.882812 16.4375 17.726562 16.4375 17.472656 16.28125 17.316406L15.082031 16.117188C14.925781 15.960938 14.671875 15.960938 14.515625 16.117188 14.359375 16.273438 14.359375 16.527344 14.515625 16.683594zM15.71875 17.882812"/>
</svg>

<svg xmlns="http://www.w3.org/2000/svg" width="32" height="32" viewBox="0 0 24 24">
    <path d="M9.602 6l-2 3.602h4zm0 0M16.398 9.602l-2-3.602-2 3.602zm0 0M12 2l-2 3.602h4zm0 0M14.094 14.93L12 10.215 9.906 14.93l1.696 1.27v1h-.403a.401.401 0 0 0-.398.402v1.597c0 .043.008.086.02.13l.8 2.398a.399.399 0 0 0 .758 0l.8-2.399a.491.491 0 0 0 .02-.129v-1.597a.401.401 0 0 0-.398-.403h-.403v-1zm-1.696 4.207L12 20.336l-.398-1.2V18h.796zM12 12.184l1.105 2.488L12 15.5l-1.105-.828zm0 0"/>
    <path d="M7.574 15.742l.922-2.46c.043-.032.086-.06.125-.095.41-.374.473-.91.172-1.472a2.097 2.097 0 0 0-.824-.817c-.524-.296-2.102-1.632-.403-6.363a.401.401 0 0 0-.683-.394 10.243 10.243 0 0 0-1.574 2.761l-4.75-2.07a.404.404 0 0 0-.442.086.408.408 0 0 0-.086.441l1.203 2.797a.39.39 0 0 0 .329.242l3.32.325c-.008.058-.008.12-.012.18L.34 9.604a.403.403 0 0 0-.313.543l.801 2a.4.4 0 0 0 .508.227l3.844-1.402c.03.078.058.156.093.23L2.18 13.266a.396.396 0 0 0-.176.293.398.398 0 0 0 .113.324l1.2 1.199a.399.399 0 0 0 .566 0l2.41-2.41c.07.074.14.148.215.215l-1.266 2.535a.4.4 0 0 0 .36.578h1.597a.403.403 0 0 0 .375-.258zm0-4.148c.23.133.41.304.512.5.18.336.062.445-.004.504a.468.468 0 0 1-.21.097.252.252 0 0 1-.079.012c-.031 0-.059.004-.09 0a.864.864 0 0 1-.098-.02c-.027-.003-.05-.011-.078-.019a.678.678 0 0 1-.152-.09c-.004 0-.008 0-.008-.004l-.105-.09a5.1 5.1 0 0 1-.664-.668c-.086-.097-.16-.203-.235-.304-.011-.016-.02-.035-.031-.051a3.964 3.964 0 0 1-.621-1.59c-.004-.031-.008-.062-.016-.094a4.666 4.666 0 0 1-.035-.53v-.005a5.1 5.1 0 0 1 .145-1.215c.004-.03.015-.058.02-.086.027-.105.058-.214.09-.324.046-.156.097-.312.155-.46-.39 2.948.84 4.062 1.504 4.437zm-2.57-3.66l-3.129-.309-.71-1.656 3.901 1.699-.03.129c-.013.047-.024.09-.032.137zm-3.578 3.558L.957 10.32l3.922-.61a4.83 4.83 0 0 0 .074.496zm2.176 2.742l-.575-.57 2.637-1.758c.004.004.008.012.012.02.031.047.062.094.094.136zm2.644.965l.91-1.82c.02.012.04.016.063.023a1.416 1.416 0 0 0 .187.063c.051.012.102.027.153.031 0 0 0 .004.003.004l-.64 1.7zm0 0M23.945 9.8a.395.395 0 0 0-.285-.195l-4.531-.703c-.004-.058-.004-.12-.012-.18l3.32-.324a.402.402 0 0 0 .333-.242l1.199-2.797a.401.401 0 0 0-.528-.527l-4.75 2.07a10.243 10.243 0 0 0-1.574-2.761.4.4 0 0 0-.68.394c1.696 4.73.118 6.067-.406 6.363a2.097 2.097 0 0 0-.824.817c-.3.562-.238 1.098.172 1.473.039.035.082.062.125.093l.922 2.461A.403.403 0 0 0 16.8 16h1.597a.4.4 0 0 0 .36-.578l-1.266-2.535c.074-.067.145-.14.215-.215l2.41 2.41a.399.399 0 0 0 .566 0l1.2-1.2a.398.398 0 0 0 .113-.323.385.385 0 0 0-.176-.293l-3.093-2.063c.035-.074.062-.152.093-.23l3.844 1.402a.402.402 0 0 0 .508-.227l.8-2a.403.403 0 0 0-.027-.347zm-1.11-3.831l-.71 1.656-3.129.309c-.008-.047-.02-.09-.031-.137a1.515 1.515 0 0 1-.027-.129zm-6.92 6.125c.1-.196.28-.367.51-.5.665-.375 1.895-1.489 1.505-4.438.058.149.11.301.156.461.031.11.062.219.09.324.004.028.015.055.02.086a5.1 5.1 0 0 1 .145 1.215l-.001.004a3.907 3.907 0 0 1-.05.621 3.964 3.964 0 0 1-.621 1.594c-.013.016-.02.035-.032.05a5.1 5.1 0 0 1-.898.973l-.106.09c-.004.004-.004.004-.008.004a.602.602 0 0 1-.152.09c-.028.008-.055.016-.086.023-.028.004-.059.012-.086.016-.031.004-.067 0-.098 0-.023-.004-.05-.004-.074-.012a.468.468 0 0 1-.21-.098c-.067-.058-.185-.167-.005-.503zm1.163 3.105l-.64-1.699c.003 0 .003-.004.003-.004.051-.004.102-.02.153-.031.023-.008.047-.012.066-.016.043-.015.082-.031.121-.047.02-.007.043-.011.063-.023l.91 1.82zm1.258-3.293l2.637 1.754-.575.574-2.168-2.171c.032-.043.063-.09.094-.137.004-.008.008-.016.012-.02zm4.238-.414l-3.527-1.289c.031-.152.055-.312.07-.473 0-.007 0-.011.004-.02l3.922.606zm0 0M7.617 18.402c-.308-.015-1.25-.058-1.574.594-.332.672.316 1.5.45 1.66a.413.413 0 0 0 .308.145.397.397 0 0 0 .305-.656c-.208-.25-.41-.66-.344-.793.031-.067.242-.18.832-.153.39.004 1.144.153 1.215.485a.405.405 0 0 0 .476.308.405.405 0 0 0 .309-.476c-.23-1.063-1.809-1.114-1.977-1.114zm0 0M8.918 16.117l-1.2 1.2A.4.4 0 0 0 8 18c.102 0 .203-.04.281-.117l1.203-1.2a.4.4 0 0 0-.566-.566zm0 0M16.34 18.402c-.176.004-1.727.07-1.934 1.121a.403.403 0 0 0 .317.47.397.397 0 0 0 .468-.317c.063-.317.793-.465 1.176-.477.59-.027.805.09.84.16.07.137-.113.536-.316.79a.398.398 0 0 0 .058.562.4.4 0 0 0 .563-.059c.129-.16.75-.98.41-1.652-.332-.656-1.281-.613-1.582-.598zm0 0M15.719 17.883a.396.396 0 0 0 .562 0 .4.4 0 0 0 0-.567l-1.199-1.199a.4.4 0 0 0-.566.567zm0 0"/>
</svg>
